icons/op-attachment-24.svg

<svg width="24" height="24" viewBox="0 0 24 24" fill="none" xmlns="http://www.w3.org/2000/svg">
<path d="M7.11125 20C6.4853 20 5.85935 19.7017 5.296 19.0718L5.20211 19.0055C4.60746 18.3756 2.8235 15.7898 5.20211 13.1378C6.39141 11.7786 8.05017 10.0547 9.80283 8.23139L12.6822 5.18149C14.4348 3.32504 15.718 3.756 17.7211 5.77821C20.0684 8.13194 20.5065 10.4857 19.4737 11.7123C18.1279 13.3698 13.0265 18.7734 12.8074 19.0055C12.5257 19.3039 12.0562 19.3039 11.7746 19.0055C11.4929 18.7071 11.4929 18.2099 11.7746 17.9115C11.8372 17.8784 17.0638 12.309 18.3783 10.7177C18.6913 10.3199 18.7226 8.92757 16.7196 6.90535C15.5616 5.71191 15.2173 4.71738 13.715 6.30863C12.7448 7.33631 11.7746 8.364 10.8356 9.32538C9.08299 11.1487 7.45552 12.8725 6.26622 14.1986C4.88913 15.7567 5.57768 17.2153 6.23492 17.8784L6.32882 17.9778C6.86087 18.5414 7.29904 18.7071 8.08147 17.8784C8.30055 17.6463 8.77001 17.1822 9.33337 16.5855C10.9295 14.9611 13.8715 11.9112 14.4661 11.1155C14.6539 10.8835 14.9356 10.2536 14.6539 10.0216C14.3097 9.69004 13.6211 10.3531 13.4333 10.5851C11.3677 12.8725 8.67612 15.6241 8.64482 15.6572C8.36315 15.9556 7.89369 15.9556 7.61201 15.6572C7.33033 15.3257 7.33033 14.8616 7.61201 14.5632C7.64331 14.5301 10.3349 11.7786 12.3692 9.52428C13.715 8.03249 14.9356 8.19824 15.6242 8.86126C16.5005 9.65689 16.2814 11.215 15.6242 12.1101C14.9982 12.9057 12.6822 15.2926 10.3662 17.7126C9.77153 18.2762 9.33337 18.7403 9.11429 18.9723C8.45704 19.6685 7.79979 20 7.11125 20Z" fill="black"/>
</svg>

<svg xmlns="http://www.w3.org/2000/svg" width="24" height="24" viewBox="0 0 24 24"><path d="M7.111 20c-.626 0-1.252-.298-1.815-.928l-.094-.066c-.595-.63-2.378-3.216 0-5.868 1.189-1.359 2.848-3.083 4.601-4.907l2.879-3.05c1.753-1.856 3.036-1.425 5.039.597 2.347 2.354 2.785 4.708 1.753 5.934-1.346 1.658-6.447 7.061-6.667 7.294a.707.707 0 0 1-1.032 0 .813.813 0 0 1 0-1.094c.062-.034 5.289-5.603 6.603-7.194.313-.398.345-1.79-1.658-3.813-1.158-1.193-1.503-2.188-3.005-.596-.97 1.027-1.94 2.055-2.879 3.016-1.753 1.824-3.38 3.548-4.57 4.874-1.377 1.558-.688 3.016-.031 3.679l.094.1c.532.563.97.729 1.752-.1.22-.232.689-.696 1.252-1.293 1.597-1.624 4.538-4.674 5.133-5.469.188-.233.47-.862.188-1.094-.344-.332-1.033.331-1.221.563-2.065 2.288-4.757 5.039-4.788 5.072a.707.707 0 0 1-1.033 0c-.282-.331-.282-.795 0-1.094.031-.033 2.723-2.784 4.757-5.039 1.346-1.492 2.567-1.326 3.255-.663.876.796.657 2.354 0 3.249-.626.796-2.942 3.183-5.258 5.603a30.9 30.9 0 0 0-1.252 1.259C8.457 19.669 7.8 20 7.111 20Z"/></svg>
